X:150
T:London Assembly THO3.150, The
O:England;London
M:C|
L:1/8
Z:vmp. Peter Dunk 2011.from a transcription by Fynn Titford-Mock 2006-9
B:Thompson's Compleat Collection of 200 Favourite Country Dances Vol. III.1765-72
Q:1/2=80
K:Bb
F2|B2 (dB) cAFE|DEBd cA F2|B2 dB c=egb|agf=e f2::F2|AFec B2 AB|dBbg f=e f2|
gbdf egce|dfBf cA F2|G E2 G cBAG|A f2 A dcBA|Bfga bfed|ecBA B2:|

